X:39
T: S SCHWIMME ZWEI FISCHLE IM BODESEE
N: E1035
O: Europa, Mitteleuropa, Deutschland, Schwaben
R: Tanz - Lied
M: 3/8
L: 1/16
K: F
 | A2A3F | G2G3E | F2FGF2 |
c2cdc2 | G2A2=B2 | c6 |
A2A3F | G2G3E | F2c2f2 |
d2B3G | G2F3E | F4z2

@@@ Tune index: 4723
